X:1
T:500 Miles
M:4/4
L:1/4
K:G
 G A B3/2 B/2| A G B2| A G A3/2 B/2| A G E2| E G A3/2 B/2| A G E D|\
 E G A2-| A3/2 A/2 G A| B3/2 B/2 A G| B3/2 B/2 A G| A3/2 B/2 A G| E2 E G|\
 A3/2 B/2 A G| E3/2 D/2 E G| G2- G z|
